X: 138
T:Brown County Breakdown
C:Emory Lester ("Coffee at Midnight" Chris Sexton)
L:1/8
Q:1/8=450
M:4/4
K:E
EC B,C | "E"E2 zE EE FE | FG GG GG AG |
AB z2 Bc e2 | (3afe fg ec (3BcB| AG E2 zE FE |\
FG GG GB cB | ec =dc "A"BG cG |
  "B"BG (3FGF "E"E2 B,C | "B"BG (3FGF "E"E2 B,A, |\
"E"B,C EF E2 FE | FG BG (3FGF EC | B,C EF GB eg |
  (3fgf ef "B"dc B2 |"E"B,C EF E2 FE |
FG Bc ea fe | fg eg fB cd | "B"ec BG "E"FE B,=D |\
  B,C EF E2 FE | =G^G Bc (3F=GF EC |
B,C EF GB cB | ed cd "B"B2 BB | "E"B,C EF E2 FE |\
  FG Bc ea fe | fg fg ec (3BcB |
"B"AG FG "E"E2 e2 | ce ze e2 ef | gb gf ec (3ABc |\
  "D"=d2 d2 dc Bc | =de dcB4 |
"E"[ec]e ze e2 ef | gb gf ec Bc | e2 e2 e2 c2 |\
  "B"BG FG "E"E2 e2 | ce ee e2 ef |
gb gf ec Bc | "D"=df AA df a=d' | c'b ab c'a be |\
  "E"(3gag ec e2 ef | gb gf ec Bc |
e2 c/e/z e2 B/c/z | "B"BG FG "E"EC B,C | E8 |

